X:1
T:James Gibb editions
T:Prado verde y florido - Guerrero
T:#
%%score [ 1 2 3 4 ]
L:1/8
Q:1/4=150
M:4/4
K:Eb
V:1 treble nm="Soprano" snm="S"
V:2 treble nm="Alto" snm="A"
V:3 treble-8 nm="Tenor" snm="T"
V:4 bass nm="Bass" snm="B"
V:1
"^Francisco Guerrero\n(1528-99)" G6 G2 | B4"^Prado verde y florido" A2 G2 | A4 G4 | z2 B4 B2 | %4
w: Pra- do|ver- de~~y flo-|ri- do,|pra- do|
w: ||||
w: El fres-|co~~y man- so|vien- to,|el fres-|
 G4 F2 E2 | F4 B4 | z2 G4 E2 |[M:4/4] F4 G4 | z2 G2 B3 B | c2 d2 e4 | d2 e4 B2 | c4 d4 | %12
w: ver- de~~y fio-|ri- do,|fuen- te|cla- ra,|a- le- gres|ar- bo- le-|das y som-|brí- as;|
w: ||||||||
w: co~~y man- so|vien- to|que~~os a-|le- gra|es- tá de|mis sus- pi-|ros in- fla-|ma- do,|
 z2 B2 c4- | c2 c2 c2 c2 | B4 G4 | A4 G4 | B4 B4 | z2 F2 G2 G2 | A2 G2 B4 | B4 z4 | F4 G2 G2 | %21
w: pues veis|* las pe- nas|mí- as|ca- da|ho- ra,|con- tad- las|blan- da- men-|te,|con- tad- las|
w: |||||||||
w: y, pues|* os ha da-|ña- do|has- ta~~a-|go- ra,|pe- did vues-|tro re- me-|dio,|pe- did vues-|
 A2 G2 B4 | c4 z2 c2 | c2 B4 =A2 | B8 | z8 | z2 E2 G2 B2- | BB =A2 B4 | G4 z2 E2 | e3 d c2 B2 | %30
w: blan- da- men-|te, a|mi pas- to-|ra;|||* mi- go~es du-|ra qui-|zá la~~a- blan- da-|
w: |||||que, si con\-||||
w: tro re- me-|dio a|mi pas- to-|ra;||||||
 A2 G2 A2 c2 | (B2 G4 FE) | F4 G4 | z2 G2 A4- | A2 A2 A2 G2 | F4 G4 | B4 A4 | B8 | B8 |] %39
w: rá vues- tra fres-|cu\- * * *|* ra,|qui- zá|* la~~a- blan- da-|rá vues-|tra fres-|cu-|ra.|
w: |||||||||
w: |||||||||
V:2
 E6 E2 | E4 A,2 B,2 | (C2 D2) E4 | G6 G2 | B4 A2 G2 | A4 G4 | z2 E4 E2 |[M:4/4] D4 E4 | %8
w: Pra- do|ver- de~~y flo-|ri\- * do,|pra- do|ver- de~~y flo-|ri- do,|fuen- te|cla- ra,|
w: ||||||||
w: El fres-|co~~y man- so|vien\- * to,|el fres-|co~~y man- so|vien- to|que~~os a-|le- gra|
 z2 E2 G3 G | A2 B2 =A4 | B2 G4 G2 | =A4 B4 | z2 G2 A4- | A2 A2 A3 G | F4 E4 | E6 E2 | F4 F4 | z8 | %18
w: a- le- gres|ar- bo- le-|das y som-|brí- as;|pues veis|* las pe- nas|mí- as|ca- da|ho- ra,||
w: ||||||||||
w: es- tá de|mis sus- pi-|ros in- fla-|ma- do,|y, pues|* os ha da-|ña- do|has- ta~~a-|go- ra,||
 z4 F4 | G2 G2 A2 G2 | B4 B2 B2 | E2 E2 F2 G2 | A4 A2 A2 | A2 G2 F4 | F8 | z2 E2 G2 B2- | %26
w: con-|tad- las blan- da-|men- te, con-|tad- las blan- da-|men- te, a|mi pas- to-|ra;||
w: |||||||que, si con\-|
w: pe-|did vues- tro re-|me- dio, pe-|did vues- tro re-|me- dio a|mi pas- to-|ra;||
 BB =A2 B4 | E4 z4 | z2 B2 e3 d | c2 B2 A2 G2 | E2 E2 (E3 F) | G2 B2 B2 =A2 | B4 B4 | z2 E2 E4- | %34
w: |ra|qui- zá la~~a-|blan- da- rá vues-|tra fres- cu\- *|ra, vues- tra fres-|cu- ra.|qui- zá|
w: * mi- go~~es du-||||||||
w: ||||||||
 E2 F2 F2 E2 | C4 E4 | G4 E4 | F8 | G8 |] %39
w: * la~~a- blan- da-|rá vues-|tra fres-|cu-|ra.|
w: |||||
w: |||||
V:3
 z8 | z8 | z8 | e6 e2 | e4 A2 B2 | (c2 d2) e4 | z2 B4 c2 |[M:4/4][K:treble-8] A4 B4 | z2 B2 e3 d | %9
w: |||Pra- do|ver- de~~y flo-|ri\- * do,|fuen- te|cla- ra,|a- le- gres|
w: |||||||||
w: |||El fres-|co~~y man- so|vien\- * to,|que~~os a-|le- gra|es- tá de|
 c2 B2 e4 | f2 e4 d2 | e4 f4 | z2 e2 e4- | e2 f2 e2 c2 | d4 B4 | c4 c2 (e2- | e2 dc) d4 | %17
w: ar- bo- le-|das y som-|brí- as;|pues veis|* las pe- nas|mí- as|ca- da ho\-|* * * ra,|
w: ||||||||
w: mis sus- pi-|ros in- fla-|ma- do,|y, pues|* os ha da-|ña- do|has- ta~~a- go\-|* * * ra,|
 B4 e2 e2 | c2 c2 d4 | e4 z4 | B4 e2 e2 | c2 c2 d4 | e4 f2 e2- | e3 d c4 | d4 z2 B2 | c2 e3 e d2 | %26
w: con- tad- las|blan- da- men-|te,|con- tad- las|blan- da- men-|te, a mi|* pas- to-|ra; *||
w: |||||||* que,|si con- mi- go~~es|
w: pe- did vues-|tro re- me-|dio,|pe- did vues-|tro re- me-|dio a mi|* pas- to-|ra; *||
 c4 B4 | z4 z2 B2 | e3 d c2 B2 | A2 G2 A2 E2 | A2 E2 z2 e2- | e2 B2 d2 (e2- | e2 d2) e4 | %33
w: |qui-|zá la~~a- blan- a-|rá vues- tra fres-|cu- ra, vues\-|* tra fres- cu\-|* * ra,|
w: du- ra|||||||
w: |||||||
 z2 B2 c4- | c2 _d2 d2 ((B2- | B2 =A2)) B2 e2- | e2 B2 c2 (e2- | e2 dc d4) | e8 |] %39
w: qui- zá|* la~~a- blan- da\-|* * rá vues-|* tra fres- cu\-||ra.|
w: ||||||
w: ||||||
V:4
 z8 | z8 | z8 | z2 E,4 E,2 | E,4 F,2 G,2 | F,4 E,4 | z2 E,4 A,2 |[M:4/4] F,4 E,4 | z2 E,2 E,2 E,2 | %9
w: |||Pra- do|ver- de~~y flo-|ri- do,|fuen- te|cla- ra,|a- le- gres|
w: |||||||||
w: |||El fres-|co~~y man- so|vien- to,|que~~os a-|le- gra|es- tá de|
 E2 D2 C4 | B,2 C4 G,2 | C4 B,4 | z2 E,2 A,4- | A,2 F,2 A,2 A,2 | B,4 E,4 | A,4 C4 | B,4 B,4 | z8 | %18
w: ar- bo- le-|das y som-|brí- as;|pues veis|* las pe- nas|mí- as|ca- da|ho- ra,||
w: |||||||||
w: mis sus- pi-|ros in- fla-|ma- do,|y, pues|* os ha da-|ña- do|has- ta~~a-|go- ra,||
 z4 B,4 | E2 E2 C2 C2 | D4 E2 E,2 | A,2 C2 B,2 B,2 | A,4 F,2 A,2 | A,2 E,2 F,4 | B,,8 | z4 z2 B,2 | %26
w: con-|tad- las blan- da-|men- te, con-|tad- las blan- da-|men- te, a|mi pas- to-|ra;||
w: |||||||que,|
w: pe-|did vues- tro re-|me- dio, pe-|did vues- tro re-|me- dio a|mi pas- to-|ra;||
 C2 E3 E D2 | C4 B,4 | z8 | z2 E,2 E3 D | C2 B,2 A,4 | E,4 B,2 C2 | B,4 E,4 | z2 E,2 A,4- | %34
w: |du- ra||qui- zá la~~a-|blan- da- rá|vues- tra fres-|cu- ra,|qui- zá|
w: si con- mi- go~~es||||||||
w: ||||||||
 A,2 _D,2 D,2 E,2 | F,4 E,4 | E,4 A,,4 | B,,8 | E,8 |] %39
w: * la~~a- blan- da-|rá vues-|tra fres-|cu-|ra.|
w: |||||
w: |||||

